packages/ui/public/icons/sidebar-subscriptions-icon.svg

<svg
  width="24"
  height="21"
  viewBox="0 0 24 21"
  fill="none"
  xmlns="http://www.w3.org/2000/svg"
>
    <path
    d="M14.3801 11.9605L11.6206 10.3676C11.2501 10.1534 10.7901 10.1534 10.4206 10.3672C10.0505 10.5809 9.82056 10.9789 9.82056 11.4063V14.5929C9.82056 15.0199 10.0505 15.4183 10.4206 15.632C10.6057 15.7389 10.8132 15.7924 11.0207 15.7924C11.2282 15.7924 11.4357 15.7389 11.6208 15.632L14.3807 14.0391H14.3811C14.7508 13.8254 14.9806 13.4274 14.9806 12.9999C14.9806 12.5722 14.7502 12.1743 14.3801 11.9605L14.3801 11.9605ZM11.4203 13.9003V12.0995L12.9802 12.9999L11.4203 13.9003Z"
  />
    <path
    d="M21.5998 5.19971H2.40019C1.0767 5.19971 0 6.2762 0 7.59989V18.3997C0 19.7232 1.0765 20.7999 2.40019 20.7999H21.5998C22.9233 20.7999 24 19.7234 24 18.3997V7.59989C24 6.27641 22.9233 5.19971 21.5998 5.19971ZM22.3996 18.3996C22.3996 18.8407 22.0407 19.1994 21.5998 19.1994H2.40019C1.95909 19.1994 1.6004 18.8405 1.6004 18.3996V7.59979C1.6004 7.15869 1.95929 6.8 2.40019 6.8H21.5998C22.0409 6.8 22.3996 7.15889 22.3996 7.59979V18.3996Z"
  />
    <path
    d="M3.60033 4.19987H20.3999C20.8418 4.19987 21.1997 3.84138 21.1997 3.40009C21.1997 2.95859 20.8412 2.6003 20.3999 2.6003L3.60033 2.6001C3.15842 2.6001 2.80054 2.95859 2.80054 3.39989C2.80054 3.84139 3.15843 4.19988 3.60033 4.19988V4.19987Z"
  />
    <path
    d="M6.39964 1.59958H17.5999C18.0418 1.59958 18.3996 1.24108 18.3996 0.799788C18.3996 0.358288 18.0411 0 17.5999 0H6.39964C5.95774 0 5.59985 0.358493 5.59985 0.799788C5.59985 1.24129 5.95835 1.59958 6.39964 1.59958Z"
  />
  </svg>

<svg width="24" height="21" fill="none" xmlns="http://www.w3.org/2000/svg"><path d="m14.38 11.96-2.76-1.592a1.202 1.202 0 0 0-1.8 1.038v3.187a1.204 1.204 0 0 0 1.2 1.2 1.2 1.2 0 0 0 .6-.161l2.76-1.593h.001c.37-.214.6-.612.6-1.04 0-.427-.23-.825-.6-1.039Zm-2.96 1.94v-1.8l1.56.9-1.56.9Z"/><path d="M21.6 5.2H2.4A2.403 2.403 0 0 0 0 7.6v10.8c0 1.323 1.077 2.4 2.4 2.4h19.2c1.323 0 2.4-1.077 2.4-2.4V7.6c0-1.324-1.077-2.4-2.4-2.4Zm.8 13.2a.8.8 0 0 1-.8.8H2.4a.8.8 0 0 1-.8-.8V7.6a.8.8 0 0 1 .8-.8h19.2a.8.8 0 0 1 .8.8v10.8ZM3.6 4.2h16.8a.8.8 0 0 0 0-1.6H3.6a.8.8 0 0 0 0 1.6ZM6.4 1.6h11.2a.8.8 0 0 0 0-1.6H6.4a.8.8 0 0 0 0 1.6Z"/></svg>
